X:1
T:Bourre des Grandes Poteries
C:Traditionnel, fichier ABC par Bernard Loffet
L:1/8
Q:228
M:6/8
K:C
z4zB/c/|[dG,][BG,][dG,][d/G,/]B/[GG,][B/G,/]c/|[dG,][BG,][dG,][dG,]G,[A/G,/]B/|[cD,][AD,][AD,][AD,]D,[G/D,/]A/|[BG,][GG,][GG,][G/G,/]^F/[G/G,/]A/[B/G,/]c/| \
[dG,][BG,][dG,][d/G,/]B/[GG,][B/G,/]c/|[dG,][BG,][dG,][dG,]G,[A/G,/]B/|[cD,][AD,][AD,][AD,]D,[G/D,/]A/|[BG,][GG,][GG,][GG,][^FD,][ED,]|[DG,]G,[ED,][DG,]G,[ED,]| \
[DG,][GG,][AD,][BG,]G,G,|[AD,][GG,][AD,][GG,][^FD,][ED,]|[DG,][GG,][AD,][BG,]G,[GG,]|[DG,]G,[ED,][DG,]G,[ED,]|[DG,][GG,][AD,][BG,]G,G,|[AD,][GG,][AD,][GG,][^FD,][ED,]| \
[DG,][BD,][AD,][GG,]G,2| \
Z:Created with TablEdit http://www.tabledit.com/ by Bernard Loffet
